X:1

T:Robertson’s

L:1/8

M:C|

R:Hornpipe

B:The Athole Collection

Z:AK/Fiddler’s Companion

K:Bb

bf|d2 (B2 B2) dB|cA F2 F2 BA|GFED EGFE|D2 B,2 B,2 bf|d2 (B2 B2) bf|

g2 =e2 c2 BA|Bcd=e fage|f2 F2 F2::fe|dB ~B2 dB ~B2|GE ~E2 GE ~E2|

cdeg fdcB|A2 F2 F2 de|fBAB gBAB|bBAB fBAB|Ggfe dcBA|B2 B,2 B,2:|

                       

ROBERTSON'S REEL. Shetland, Reel. A Major (Songer): G Major (Callaghan). Standard tuning. AABB. Composed by the late Shetland fiddler, teacher, collector and composer Tom Anderson (1910-1991). The tune apparently has been quite popular among Portland, Oregon, contra dance musicians (who play it in the key of ‘A’). It has also gained some currency in England, where it was popularized by Northumbrian shepherds Willy Taylor, Joe Hutton and Will Atkinson (played in the key of ‘G’). Perhaps titled in honor of Scottish fiddler Arthur S.Robertson? Source for notated version: Portland contra dance musicians Christy Keevil via George Penk via Dennis Rothrock [Songer]. Callaghan (Hardcore English), 2007; pg. 47. Songer (Portland Collection), 1997; pg. 168. Leader LED2052, “Shetland Fiddlers” (1973). Philo 1051, Boys of the Lough ‑ "Good Friends, Good Music" (1977).

